X:1
T:Chuchirast
L:1/16
Q:70
M:2/4
K:Ab
e2ec A2c2 | d2dB G2G2 | egg2 dff2 | ceec A4 | e2ec A2c2 | d2dB G2G2 | egg2 gfdB | A2c2 A2z2 :|